X: 1
M: 4/4
K: D
|:"Fmaj7" [G,f]d Be -ed FB | G,B (de) fd FG | "C" [Da]d Aa -ae DA | [Df]d Af -fd D2 |
| "Fmaj7" [G,f]d Be -ed FB | G,B (de) fd FB | "Asus2" [F,c]F Bc fF cB |1 "E7" [F,_B]2 Ef -fc E2 :|2 "E" [F,_B]8 ||
